X:1
T:Cheers, Cheers for Old Notre Dame
M:4/4
L:1/4
K:G
 B2 ^A B| c/2 c B/2 c2| c/2 c c/2 B c| d/2 d ^c/2 d2| e g f e| d B G2|\
 B/2 A ^G/2B/2 A3/2| ^G A d2| B/2 B B/2 ^A B| c/2 c B/2 c2| c/2 c c/2 B c|\
 d/2 d ^c/2 d2| e g f e| d B G A| B/2 d c/2 B A| G2- G z|
